elementary-icon-theme/elementary/apps/48/ooo-base.svg

<?xml version="1.0" encoding="UTF-8" standalone="no"?>
<!-- Created with Inkscape (http://www.inkscape.org/) -->

<svg
   xmlns:dc="http://purl.org/dc/elements/1.1/"
   xmlns:cc="http://creativecommons.org/ns#"
   xmlns:rdf="http://www.w3.org/1999/02/22-rdf-syntax-ns#"
   xmlns:svg="http://www.w3.org/2000/svg"
   xmlns="http://www.w3.org/2000/svg"
   xmlns:xlink="http://www.w3.org/1999/xlink"
   xmlns:sodipodi="http://sodipodi.sourceforge.net/DTD/sodipodi-0.dtd"
   xmlns:inkscape="http://www.inkscape.org/namespaces/inkscape"
   width="48px"
   height="48px"
   id="svg4007"
   version="1.1"
   inkscape:version="0.48.0 r9654"
   sodipodi:docname="000-base.svg">
  <defs
     id="defs4009">
    <linearGradient
       inkscape:collect="always"
       xlink:href="#linearGradient3923"
       id="linearGradient3921"
       x1="21.381216"
       y1="5.0524864"
       x2="21.381216"
       y2="44.137077"
       gradientUnits="userSpaceOnUse" />
    <linearGradient
       id="linearGradient3923">
      <stop
         offset="0"
         style="stop-color:#ffffff;stop-opacity:1;"
         id="stop3925" />
      <stop
         id="stop3927"
         style="stop-color:#ffffff;stop-opacity:0.23529412;"
         offset="0.08125819" />
      <stop
         offset="0.87818879"
         style="stop-color:#ffffff;stop-opacity:0.15686275;"
         id="stop3929" />
      <stop
         offset="1"
         style="stop-color:#ffffff;stop-opacity:0.39215687;"
         id="stop3931" />
    </linearGradient>
    <linearGradient
       x1="102.30806"
       y1="-2.3925467"
       x2="102.30806"
       y2="-24.582239"
       id="linearGradient2588"
       xlink:href="#linearGradient3844"
       gradientUnits="userSpaceOnUse"
       gradientTransform="matrix(0.7369845,0,0,0.7314898,-52.605621,21.888493)"
       spreadMethod="reflect" />
    <linearGradient
       id="linearGradient3844">
      <stop
         id="stop3846"
         style="stop-color:#a5a6a8;stop-opacity:1"
         offset="0" />
      <stop
         id="stop3848"
         style="stop-color:#e8e8e8;stop-opacity:1"
         offset="1" />
    </linearGradient>
    <linearGradient
       x1="109.95628"
       y1="-24.91135"
       x2="109.95628"
       y2="-2.3757858"
       id="linearGradient2590"
       xlink:href="#linearGradient2509"
       gradientUnits="userSpaceOnUse"
       gradientTransform="matrix(0.7369845,0,0,0.7314898,-52.605621,21.888493)" />
    <linearGradient
       id="linearGradient2509">
      <stop
         id="stop2511"
         style="stop-color:#b3b3b3;stop-opacity:1"
         offset="0" />
      <stop
         id="stop2513"
         style="stop-color:#dadada;stop-opacity:1"
         offset="1" />
    </linearGradient>
    <linearGradient
       x1="103.95014"
       y1="-7.6656942"
       x2="89.423676"
       y2="-7.6656942"
       id="linearGradient2593"
       xlink:href="#linearGradient2793"
       gradientUnits="userSpaceOnUse"
       gradientTransform="matrix(0.7365163,0,0,0.7204767,-52.560989,28.852531)"
       spreadMethod="reflect" />
    <linearGradient
       id="linearGradient2793">
      <stop
         id="stop2795"
         style="stop-color:#868688;stop-opacity:1"
         offset="0" />
      <stop
         id="stop2797"
         style="stop-color:#d9d9da;stop-opacity:1"
         offset="1" />
    </linearGradient>
    <linearGradient
       x1="89.01844"
       y1="22.536863"
       x2="89.01844"
       y2="27.54611"
       id="linearGradient2595"
       xlink:href="#linearGradient3858"
       gradientUnits="userSpaceOnUse"
       gradientTransform="matrix(1.6086956,0,0,1.6666668,-127.4707,-18.576854)" />
    <linearGradient
       id="linearGradient3858">
      <stop
         id="stop3860"
         style="stop-color:#a0a0a0;stop-opacity:1"
         offset="0" />
      <stop
         id="stop3862"
         style="stop-color:#4a4a4a;stop-opacity:1"
         offset="1" />
    </linearGradient>
    <linearGradient
       x1="103.95014"
       y1="-7.6656942"
       x2="89.423676"
       y2="-7.6656942"
       id="linearGradient2597"
       xlink:href="#linearGradient2793"
       gradientUnits="userSpaceOnUse"
       gradientTransform="matrix(0.7365163,0,0,0.7204767,-52.560989,37.852531)"
       spreadMethod="reflect" />
    <linearGradient
       x1="89.01844"
       y1="22.536863"
       x2="89.01844"
       y2="27.54611"
       id="linearGradient2599"
       xlink:href="#linearGradient3858"
       gradientUnits="userSpaceOnUse"
       gradientTransform="matrix(1.6086956,0,0,1.6666668,-127.4707,-9.576854)" />
    <linearGradient
       x1="103.95014"
       y1="-7.6656942"
       x2="89.423676"
       y2="-7.6656942"
       id="linearGradient2575"
       xlink:href="#linearGradient2793"
       gradientUnits="userSpaceOnUse"
       gradientTransform="matrix(0.7365163,0,0,0.7204767,-52.560989,46.852531)"
       spreadMethod="reflect" />
    <linearGradient
       x1="89.01844"
       y1="22.536863"
       x2="89.01844"
       y2="27.54611"
       id="linearGradient2577"
       xlink:href="#linearGradient3858"
       gradientUnits="userSpaceOnUse"
       gradientTransform="matrix(1.6086956,0,0,1.6666668,-127.4707,-0.5768545)" />
    <linearGradient
       id="linearGradient23419">
      <stop
         id="stop23421"
         style="stop-color:#000000;stop-opacity:1"
         offset="0" />
      <stop
         id="stop23423"
         style="stop-color:#000000;stop-opacity:0"
         offset="1" />
    </linearGradient>
    <radialGradient
       r="22.627417"
       fy="41.63604"
       fx="23.334524"
       cy="41.63604"
       cx="23.334524"
       gradientTransform="matrix(0.9516533,0,0,0.3655503,1.7936239,24.507202)"
       gradientUnits="userSpaceOnUse"
       id="radialGradient4005"
       xlink:href="#linearGradient23419"
       inkscape:collect="always" />
  </defs>
  <sodipodi:namedview
     id="base"
     pagecolor="#ffffff"
     bordercolor="#666666"
     borderopacity="1.0"
     inkscape:pageopacity="0.0"
     inkscape:pageshadow="2"
     inkscape:zoom="11.3125"
     inkscape:cx="24"
     inkscape:cy="24"
     inkscape:current-layer="layer1"
     showgrid="true"
     inkscape:grid-bbox="true"
     inkscape:document-units="px"
     showguides="true"
     inkscape:guide-bbox="true"
     inkscape:window-width="1280"
     inkscape:window-height="753"
     inkscape:window-x="0"
     inkscape:window-y="24"
     inkscape:window-maximized="1" />
  <metadata
     id="metadata4012">
    <rdf:RDF>
      <cc:Work
         rdf:about="">
        <dc:format>image/svg+xml</dc:format>
        <dc:type
           rdf:resource="http://purl.org/dc/dcmitype/StillImage" />
        <dc:title></dc:title>
      </cc:Work>
    </rdf:RDF>
  </metadata>
  <g
     id="layer1"
     inkscape:label="Layer 1"
     inkscape:groupmode="layer">
    <path
       inkscape:connector-curvature="0"
       d="M 45.533456,39.727265 C 45.535278,44.295964 35.893898,48 24,48 12.106102,48 2.464708,44.295964 2.466544,39.727265 2.464722,35.158566 12.106102,31.45453 24,31.45453 c 11.893898,0 21.535294,3.704036 21.533456,8.272735 z"
       id="path23417"
       style="opacity:0.3;fill:url(#radialGradient4005);fill-opacity:1;fill-rule:evenodd;stroke:none;stroke-width:2;marker:none;visibility:visible;display:inline;overflow:visible" />
    <path
       inkscape:connector-curvature="0"
       d="m 42.484183,37.112916 c 0,4.077669 -8.282739,7.387084 -18.488235,7.387084 -10.205513,0 -18.4882475,-3.309415 -18.4882475,-7.387084 0,-11.816215 -2.2597682,-7.233301 18.4882475,-7.387083 21.223177,-0.158667 18.488235,-5.446015 18.488235,7.387083 z"
       id="path2561"
       style="fill:url(#linearGradient2575);fill-opacity:1;stroke:url(#linearGradient2577);stroke-width:0.99999988;stroke-miterlimit:4;stroke-opacity:1;stroke-dasharray:none" />
    <path
       inkscape:connector-curvature="0"
       d="m 42.499999,30.000001 c 0,4.142137 -8.282732,7.499999 -18.499998,7.499999 -10.217269,0 -18.5,-3.357862 -18.5,-7.499999 0,-4.142136 8.282731,-7.500001 18.5,-7.500001 10.217266,0 18.499998,3.357865 18.499998,7.500001 l 0,0 z"
       id="path2563"
       style="fill:#868688;fill-opacity:1;stroke:#d8d8d8;stroke-width:0.99999988;stroke-miterlimit:4;stroke-opacity:1;stroke-dasharray:none" />
    <path
       inkscape:connector-curvature="0"
       d="m 42.484183,28.112916 c 0,4.077669 -8.282739,7.387084 -18.488235,7.387084 -10.205513,0 -18.4882475,-3.309415 -18.4882475,-7.387084 0,-13.070521 -2.2597682,-7.233301 18.4882475,-7.387083 21.223177,-0.158667 18.488235,-5.690708 18.488235,7.387083 z"
       id="path2536"
       style="fill:url(#linearGradient2597);fill-opacity:1;stroke:url(#linearGradient2599);stroke-width:0.99999988;stroke-miterlimit:4;stroke-opacity:1;stroke-dasharray:none" />
    <path
       inkscape:connector-curvature="0"
       d="m 42.499999,21.000001 c 0,4.142137 -8.282732,7.499999 -18.499998,7.499999 -10.217269,0 -18.5,-3.357862 -18.5,-7.499999 0,-4.142136 8.282731,-7.500001 18.5,-7.500001 10.217266,0 18.499998,3.357865 18.499998,7.500001 l 0,0 z"
       id="path2538"
       style="fill:#868688;fill-opacity:1;stroke:#d8d8d8;stroke-width:0.99999988;stroke-miterlimit:4;stroke-opacity:1;stroke-dasharray:none" />
    <path
       inkscape:connector-curvature="0"
       d="m 42.484183,19.112916 c 0,4.077669 -8.282739,7.387084 -18.488235,7.387084 -10.205513,0 -18.4882475,-3.309415 -18.4882475,-7.387084 0,-13.9508896 -2.2597682,-7.233301 18.4882475,-7.387083 21.223177,-0.158667 18.488235,-5.5410032 18.488235,7.387083 z"
       id="path3878"
       style="fill:url(#linearGradient2593);fill-opacity:1;stroke:url(#linearGradient2595);stroke-width:0.99999988;stroke-miterlimit:4;stroke-opacity:1;stroke-dasharray:none" />
    <path
       inkscape:connector-curvature="0"
       d="m 42.499999,12.000001 c 0,4.142137 -8.282732,7.499999 -18.499998,7.499999 -10.217269,0 -18.5,-3.357862 -18.5,-7.499999 0,-4.1421359 8.282731,-7.5000011 18.5,-7.5000011 10.217266,0 18.499998,3.3578652 18.499998,7.5000011 l 0,0 z"
       id="path3880"
       style="fill:url(#linearGradient2588);fill-opacity:1;stroke:url(#linearGradient2590);stroke-width:0.99999988;stroke-miterlimit:4;stroke-opacity:1;stroke-dasharray:none" />
    <rect
       style="opacity:0.5;color:#000000;fill:none;stroke:url(#linearGradient3921);stroke-width:0.99999994;stroke-opacity:1;marker:none;visibility:visible;display:inline;overflow:visible;enable-background:accumulate"
       id="rect3145"
       width="35"
       height="38"
       x="6.5"
       y="5.4999995"
       rx="17.5"
       ry="7" />
  </g>
</svg>

<?xml version="1.0" encoding="UTF-8" standalone="no"?>
<!-- Created with Inkscape (http://www.inkscape.org/) -->
<svg
   xmlns:dc="http://purl.org/dc/elements/1.1/"
   xmlns:cc="http://creativecommons.org/ns#"
   xmlns:rdf="http://www.w3.org/1999/02/22-rdf-syntax-ns#"
   xmlns:svg="http://www.w3.org/2000/svg"
   xmlns="http://www.w3.org/2000/svg"
   xmlns:xlink="http://www.w3.org/1999/xlink"
   xmlns:sodipodi="http://sodipodi.sourceforge.net/DTD/sodipodi-0.dtd"
   xmlns:inkscape="http://www.inkscape.org/namespaces/inkscape"
   version="1.0"
   width="48"
   height="48"
   id="svg2601"
   sodipodi:version="0.32"
   inkscape:version="0.46"
   sodipodi:docname="ooo-base.svg"
   inkscape:output_extension="org.inkscape.output.svg.inkscape">
  <metadata
     id="metadata37">
    <rdf:RDF>
      <cc:Work
         rdf:about="">
        <dc:format>image/svg+xml</dc:format>
        <dc:type
           rdf:resource="http://purl.org/dc/dcmitype/StillImage" />
      </cc:Work>
    </rdf:RDF>
  </metadata>
  <sodipodi:namedview
     inkscape:window-height="707"
     inkscape:window-width="640"
     inkscape:pageshadow="2"
     inkscape:pageopacity="0.0"
     guidetolerance="10.0"
     gridtolerance="10.0"
     objecttolerance="10.0"
     borderopacity="1.0"
     bordercolor="#666666"
     pagecolor="#ffffff"
     id="base"
     showgrid="false"
     inkscape:zoom="5.1875"
     inkscape:cx="9.253012"
     inkscape:cy="24"
     inkscape:window-x="798"
     inkscape:window-y="24"
     inkscape:current-layer="svg2601" />
  <defs
     id="defs2603">
    <linearGradient
       id="linearGradient4544">
      <stop
         id="stop4546"
         style="stop-color:#ffffff;stop-opacity:1"
         offset="0" />
      <stop
         id="stop4548"
         style="stop-color:#ffffff;stop-opacity:0"
         offset="1" />
    </linearGradient>
    <linearGradient
       x1="21"
       y1="-1.2162945"
       x2="21"
       y2="43.254292"
       id="linearGradient2671"
       xlink:href="#linearGradient4544"
       gradientUnits="userSpaceOnUse" />
    <linearGradient
       id="linearGradient3763">
      <stop
         id="stop3765"
         style="stop-color:#1f4b6a;stop-opacity:1"
         offset="0" />
      <stop
         id="stop3767"
         style="stop-color:#4083c2;stop-opacity:1"
         offset="1" />
    </linearGradient>
    <linearGradient
       x1="10.148324"
       y1="43.124264"
       x2="10.550242"
       y2="-1.086264"
       id="linearGradient3769"
       xlink:href="#linearGradient3763"
       gradientUnits="userSpaceOnUse" />
    <linearGradient
       id="linearGradient3720">
      <stop
         id="stop3722"
         style="stop-color:#8badea;stop-opacity:1"
         offset="0" />
      <stop
         id="stop3728"
         style="stop-color:#6396cd;stop-opacity:1"
         offset="0.5" />
      <stop
         id="stop3730"
         style="stop-color:#3b7caf;stop-opacity:1"
         offset="0.84090906" />
      <stop
         id="stop3724"
         style="stop-color:#194c70;stop-opacity:1"
         offset="1" />
    </linearGradient>
    <radialGradient
       cx="16.960728"
       cy="5.8834233"
       r="22.105263"
       fx="16.960728"
       fy="5.8834233"
       id="radialGradient3740"
       xlink:href="#linearGradient3720"
       gradientUnits="userSpaceOnUse"
       gradientTransform="matrix(0,2,-1.3459458,0,28.918769,-35.007719)" />
    <linearGradient
       id="linearGradient2509">
      <stop
         id="stop2511"
         style="stop-color:#b3b3b3;stop-opacity:1"
         offset="0" />
      <stop
         id="stop2513"
         style="stop-color:#dadada;stop-opacity:1"
         offset="1" />
    </linearGradient>
    <linearGradient
       x1="109.95628"
       y1="-24.91135"
       x2="109.95628"
       y2="-2.3757858"
       id="linearGradient2590"
       xlink:href="#linearGradient2509"
       gradientUnits="userSpaceOnUse"
       gradientTransform="matrix(0.7369845,0,0,0.7314898,-52.605621,21.888493)" />
    <linearGradient
       id="linearGradient3844">
      <stop
         id="stop3846"
         style="stop-color:#a5a6a8;stop-opacity:1"
         offset="0" />
      <stop
         id="stop3848"
         style="stop-color:#e8e8e8;stop-opacity:1"
         offset="1" />
    </linearGradient>
    <linearGradient
       x1="102.30806"
       y1="-2.3925467"
       x2="102.30806"
       y2="-24.582239"
       id="linearGradient2588"
       xlink:href="#linearGradient3844"
       gradientUnits="userSpaceOnUse"
       gradientTransform="matrix(0.7369845,0,0,0.7314898,-52.605621,21.888493)"
       spreadMethod="reflect" />
    <linearGradient
       x1="89.01844"
       y1="22.536863"
       x2="89.01844"
       y2="27.54611"
       id="linearGradient2595"
       xlink:href="#linearGradient3858"
       gradientUnits="userSpaceOnUse"
       gradientTransform="matrix(1.6086956,0,0,1.6666668,-127.4707,-18.576854)" />
    <linearGradient
       x1="103.95014"
       y1="-7.6656942"
       x2="89.423676"
       y2="-7.6656942"
       id="linearGradient2593"
       xlink:href="#linearGradient2793"
       gradientUnits="userSpaceOnUse"
       gradientTransform="matrix(0.7365163,0,0,0.7204767,-52.560989,28.852531)"
       spreadMethod="reflect" />
    <linearGradient
       x1="89.01844"
       y1="22.536863"
       x2="89.01844"
       y2="27.54611"
       id="linearGradient2599"
       xlink:href="#linearGradient3858"
       gradientUnits="userSpaceOnUse"
       gradientTransform="matrix(1.6086956,0,0,1.6666668,-127.4707,-9.5768539)" />
    <linearGradient
       x1="103.95014"
       y1="-7.6656942"
       x2="89.423676"
       y2="-7.6656942"
       id="linearGradient2597"
       xlink:href="#linearGradient2793"
       gradientUnits="userSpaceOnUse"
       gradientTransform="matrix(0.7365163,0,0,0.7204767,-52.560989,37.852531)"
       spreadMethod="reflect" />
    <linearGradient
       id="linearGradient3858">
      <stop
         id="stop3860"
         style="stop-color:#a0a0a0;stop-opacity:1"
         offset="0" />
      <stop
         id="stop3862"
         style="stop-color:#4a4a4a;stop-opacity:1"
         offset="1" />
    </linearGradient>
    <linearGradient
       x1="89.01844"
       y1="22.536863"
       x2="89.01844"
       y2="27.54611"
       id="linearGradient2577"
       xlink:href="#linearGradient3858"
       gradientUnits="userSpaceOnUse"
       gradientTransform="matrix(1.6086956,0,0,1.6666668,-127.4707,-0.576854)" />
    <linearGradient
       id="linearGradient2793">
      <stop
         id="stop2795"
         style="stop-color:#868688;stop-opacity:1"
         offset="0" />
      <stop
         id="stop2797"
         style="stop-color:#d9d9da;stop-opacity:1"
         offset="1" />
    </linearGradient>
    <linearGradient
       x1="103.95014"
       y1="-7.6656942"
       x2="89.423676"
       y2="-7.6656942"
       id="linearGradient2575"
       xlink:href="#linearGradient2793"
       gradientUnits="userSpaceOnUse"
       gradientTransform="matrix(0.7365163,0,0,0.7204767,-52.560989,46.852531)"
       spreadMethod="reflect" />
    <linearGradient
       id="linearGradient23419">
      <stop
         id="stop23421"
         style="stop-color:#000000;stop-opacity:1"
         offset="0" />
      <stop
         id="stop23423"
         style="stop-color:#000000;stop-opacity:0"
         offset="1" />
    </linearGradient>
    <radialGradient
       cx="23.334524"
       cy="41.63604"
       r="22.627417"
       fx="23.334524"
       fy="41.63604"
       id="radialGradient2528"
       xlink:href="#linearGradient23419"
       gradientUnits="userSpaceOnUse"
       gradientTransform="matrix(0.9516533,0,0,0.3655503,1.7936239,24.507202)" />
  </defs>
  <g
     id="layer1">
    <path
       d="M 45.533456,39.727265 C 45.535278,44.295964 35.893898,48 24,48 C 12.106102,48 2.464708,44.295964 2.466544,39.727265 C 2.464722,35.158566 12.106102,31.45453 24,31.45453 C 35.893898,31.45453 45.535294,35.158566 45.533456,39.727265 z"
       id="path23417"
       style="opacity:0.3;fill:url(#radialGradient2528);fill-opacity:1;fill-rule:evenodd;stroke:none;stroke-width:2;marker:none;visibility:visible;display:inline;overflow:visible" />
    <path
       d="M 42.484183,37.112916 C 42.484183,41.190585 34.201444,44.5 23.995948,44.5 C 13.790435,44.5 5.5077005,41.190585 5.5077005,37.112916 C 5.5077005,25.296701 3.2479323,29.879615 23.995948,29.725833 C 45.219125,29.567166 42.484183,24.279818 42.484183,37.112916 z"
       id="path2561"
       style="fill:url(#linearGradient2575);fill-opacity:1;stroke:url(#linearGradient2577);stroke-width:0.99999988;stroke-miterlimit:4;stroke-dasharray:none;stroke-opacity:1" />
    <path
       d="M 42.499999,30.000001 C 42.499999,34.142138 34.217267,37.5 24.000001,37.5 C 13.782732,37.5 5.500001,34.142138 5.500001,30.000001 C 5.500001,25.857865 13.782732,22.5 24.000001,22.5 C 34.217267,22.5 42.499999,25.857865 42.499999,30.000001 L 42.499999,30.000001 z"
       id="path2563"
       style="fill:#868688;fill-opacity:1;stroke:#d8d8d8;stroke-width:0.99999988;stroke-miterlimit:4;stroke-dasharray:none;stroke-opacity:1" />
    <path
       d="M 42.484183,28.112916 C 42.484183,32.190585 34.201444,35.5 23.995948,35.5 C 13.790435,35.5 5.5077005,32.190585 5.5077005,28.112916 C 5.5077005,15.042395 3.2479323,20.879615 23.995948,20.725833 C 45.219125,20.567166 42.484183,15.035125 42.484183,28.112916 z"
       id="path2536"
       style="fill:url(#linearGradient2597);fill-opacity:1;stroke:url(#linearGradient2599);stroke-width:0.99999988;stroke-miterlimit:4;stroke-dasharray:none;stroke-opacity:1" />
    <path
       d="M 42.499999,21.000001 C 42.499999,25.142138 34.217267,28.5 24.000001,28.5 C 13.782732,28.5 5.500001,25.142138 5.500001,21.000001 C 5.500001,16.857865 13.782732,13.5 24.000001,13.5 C 34.217267,13.5 42.499999,16.857865 42.499999,21.000001 L 42.499999,21.000001 z"
       id="path2538"
       style="fill:#868688;fill-opacity:1;stroke:#d8d8d8;stroke-width:0.99999988;stroke-miterlimit:4;stroke-dasharray:none;stroke-opacity:1" />
    <path
       d="M 42.484183,19.112916 C 42.484183,23.190585 34.201444,26.5 23.995948,26.5 C 13.790435,26.5 5.5077005,23.190585 5.5077005,19.112916 C 5.5077005,5.1620269 3.2479323,11.879615 23.995948,11.725833 C 45.219125,11.567166 42.484183,6.1848303 42.484183,19.112916 z"
       id="path3878"
       style="fill:url(#linearGradient2593);fill-opacity:1;stroke:url(#linearGradient2595);stroke-width:0.99999988;stroke-miterlimit:4;stroke-dasharray:none;stroke-opacity:1" />
    <path
       d="M 42.499999,12.000001 C 42.499999,16.142138 34.217267,19.5 24.000001,19.5 C 13.782732,19.5 5.500001,16.142138 5.500001,12.000001 C 5.500001,7.8578656 13.782732,4.5000004 24.000001,4.5000004 C 34.217267,4.5000004 42.499999,7.8578656 42.499999,12.000001 L 42.499999,12.000001 z"
       id="path3880"
       style="fill:url(#linearGradient2588);fill-opacity:1;stroke:url(#linearGradient2590);stroke-width:0.99999988;stroke-miterlimit:4;stroke-dasharray:none;stroke-opacity:1" />
  </g>
</svg>
